Sources/FrostedUI/Resources/Icons.xcassets/calendarXSize32.imageset/calendar-x-size-32.svg

<svg
  width="32"
  height="32"
  viewBox="0 0 32 32"
  fill="none"
  xmlns="http://www.w3.org/2000/svg"
  data-fui-icon="true"
>
  <path
    d="M10.3333 6.33329V3.66663M21.6667 6.33329V3.66663M12.664 13.3333L19.3329 20.0022M19.3356 13.3333L12.6667 20.0022M7.66667 27H24.3333C25.8061 27 27 25.8061 27 24.3333V8.99996C27 7.5272 25.8061 6.33329 24.3333 6.33329H7.66667C6.19391 6.33329 5 7.5272 5 8.99996V24.3333C5 25.8061 6.19391 27 7.66667 27Z"
    stroke="currentColor"
    stroke-width="1.5"
    stroke-linecap="round"
    stroke-linejoin="round"
  />
</svg>

<svg xmlns="http://www.w3.org/2000/svg" width="32" height="32" fill="none" data-fui-icon="true" viewBox="0 0 32 32"><path stroke="currentColor" stroke-linecap="round" stroke-linejoin="round" stroke-width="1.5" d="M10.333 6.333V3.667m11.334 2.666V3.667m-9.003 9.666 6.669 6.67m.003-6.67-6.67 6.67m-5 6.997h16.667A2.667 2.667 0 0 0 27 24.333V9a2.667 2.667 0 0 0-2.667-2.667H7.667A2.667 2.667 0 0 0 5 9v15.333A2.667 2.667 0 0 0 7.667 27"/></svg>
